src/svg/uf246-i-cursor.svg

<!-- Generated by IcoMoon.io -->
<svg version="1.1" xmlns="http://www.w3.org/2000/svg" width="16" height="32" viewBox="0 0 16 32">
<path d="M14.857 2.286c-3.786 0-5.714 1.339-5.714 4v7.429h2.286v2.286h-2.286v9.714c0 2.661 1.929 4 5.714 4h1.143v2.286h-1.143c-3.214 0-5.571-0.929-6.857-2.607-1.286 1.679-3.643 2.607-6.857 2.607h-1.143v-2.286h1.143c3.786 0 5.714-1.339 5.714-4v-9.714h-2.286v-2.286h2.286v-7.429c0-2.661-1.929-4-5.714-4h-1.143v-2.286h1.143c3.214 0 5.571 0.929 6.857 2.607 1.286-1.679 3.643-2.607 6.857-2.607h1.143v2.286h-1.143z"></path>
</svg>

<svg xmlns="http://www.w3.org/2000/svg" width="16" height="32"><path d="M14.857 2.286c-3.786 0-5.714 1.339-5.714 4v7.429h2.286v2.286H9.143v9.714c0 2.661 1.929 4 5.714 4H16v2.286h-1.143c-3.214 0-5.571-.929-6.857-2.607-1.286 1.679-3.643 2.607-6.857 2.607H0v-2.286h1.143c3.786 0 5.714-1.339 5.714-4v-9.714H4.571v-2.286h2.286V6.286c0-2.661-1.929-4-5.714-4H0V0h1.143C4.357 0 6.714.929 8 2.607 9.286.928 11.643 0 14.857 0H16v2.286h-1.143z"/></svg>
